public/assets/img/n-white.svg

<svg width="15" height="15" viewBox="0 0 15 15" fill="none" xmlns="http://www.w3.org/2000/svg">
<path d="M5.48448 1.17234L5.48208 1.17331C4.72581 1.47886 4.36043 2.33964 4.66599 3.09591L8.8992 13.5735C9.20475 14.3298 10.0655 14.6951 10.8218 14.3896L10.8242 14.3886C11.5805 14.0831 11.9458 13.2223 11.6403 12.466L7.40708 1.98844C7.10153 1.23217 6.24075 0.866787 5.48448 1.17234Z" fill="white" fill-opacity="0.5"/>
<path d="M6.61573 1.15568L6.61332 1.15473C5.85536 0.853403 4.99663 1.22358 4.69531 1.98155L0.545524 12.4201C0.244199 13.1781 0.614379 14.0368 1.37235 14.3381L1.37475 14.3391C2.13271 14.6404 2.99144 14.2702 3.29276 13.5123L7.44255 3.0737C7.74387 2.31573 7.37369 1.45701 6.61573 1.15568Z" fill="white" fill-opacity="0.8"/>
<path d="M13.6273 4.50603L13.6249 4.50507C12.8669 4.20374 12.0082 4.57393 11.7068 5.33189L8.86706 12.4752C8.56574 13.2332 8.93592 14.0919 9.69389 14.3932L9.69629 14.3942C10.4543 14.6955 11.313 14.3253 11.6143 13.5674L14.4541 6.42404C14.7554 5.66607 14.3852 4.80735 13.6273 4.50603Z" fill="white" fill-opacity="0.8"/>
</svg>

<svg width="15" height="15" fill="none" xmlns="http://www.w3.org/2000/svg"><path d="m5.484 1.172-.002.001a1.477 1.477 0 0 0-.816 1.923l4.233 10.477a1.477 1.477 0 0 0 1.923.817l.002-.001a1.477 1.477 0 0 0 .816-1.923L7.407 1.988a1.477 1.477 0 0 0-1.923-.816Z" fill="#fff" fill-opacity=".5"/><path d="m6.616 1.156-.003-.001a1.477 1.477 0 0 0-1.918.827L.545 12.42a1.477 1.477 0 0 0 .827 1.918l.003.001a1.477 1.477 0 0 0 1.918-.827l4.15-10.438a1.477 1.477 0 0 0-.827-1.918ZM13.627 4.506h-.002a1.477 1.477 0 0 0-1.918.826l-2.84 7.143a1.477 1.477 0 0 0 .827 1.918l.002.001a1.477 1.477 0 0 0 1.918-.827l2.84-7.143a1.477 1.477 0 0 0-.827-1.918Z" fill="#fff" fill-opacity=".8"/></svg>
